symbols/web/edit_location_alt/materialsymbolsoutlined/edit_location_alt_wght700gradN25fill1_24px.svg

<svg xmlns="http://www.w3.org/2000/svg" height="24" width="24"><path d="M10.9 11.125V8.9l5.825-5.825L18.95 5.3l-5.825 5.825Zm9-6.75-2.25-2.25.875-.875q.35-.35.8-.338.45.013.775.363l.65.65q.35.325.338.8-.013.475-.363.825ZM12 22.65q-4.275-3.675-6.387-6.75Q3.5 12.825 3.5 10.2q0-4 2.562-6.363Q8.625 1.475 12 1.475q.825 0 1.6.137.775.138 1.525.438l-6.1 6.075V13h4.85l6.075-6.075q.3.75.438 1.55.137.8.137 1.725 0 2.625-2.112 5.7Q16.3 18.975 12 22.65Z"/></svg>

<svg xmlns="http://www.w3.org/2000/svg" height="24" width="24"><path d="M10.9 11.125V8.9L16.725 3.075L18.95 5.3L13.125 11.125ZM19.9 4.375 17.65 2.125 18.525 1.25Q18.875 0.9 19.325 0.912Q19.775 0.925 20.1 1.275L20.75 1.925Q21.1 2.25 21.088 2.725Q21.075 3.2 20.725 3.55ZM12 22.65Q7.725 18.975 5.613 15.9Q3.5 12.825 3.5 10.2Q3.5 6.2 6.062 3.837Q8.625 1.475 12 1.475Q12.825 1.475 13.6 1.612Q14.375 1.75 15.125 2.05L9.025 8.125V13H13.875L19.95 6.925Q20.25 7.675 20.388 8.475Q20.525 9.275 20.525 10.2Q20.525 12.825 18.413 15.9Q16.3 18.975 12 22.65Z"/></svg>
